React/src/assets/images/backend/nest.svg

<svg width="130" height="130" viewBox="0 0 130 130" fill="none" xmlns="http://www.w3.org/2000/svg">
<path d="M74.6986 10.5774C73.9219 10.5774 73.1821 10.7623 72.5164 10.9842C73.9588 11.9459 74.7355 13.2034 75.1424 14.6458C75.1794 14.8308 75.2164 14.9787 75.2533 15.1636C75.2903 15.3486 75.3273 15.4965 75.3273 15.6814C75.4383 18.1595 74.6616 18.4554 74.1438 19.9348C73.3301 21.8211 73.552 23.8553 74.5506 25.4827C74.6246 25.6676 74.7355 25.8895 74.8835 26.1115C73.8109 18.9732 79.7656 17.9006 80.8752 15.6814C80.9492 13.7212 79.3588 12.4267 78.1013 11.539C76.8068 10.7993 75.6972 10.5774 74.6986 10.5774V10.5774ZM83.6491 12.1678C83.5382 12.8335 83.6122 12.6486 83.5752 12.9815C83.5382 13.2034 83.5382 13.4993 83.5012 13.7212C83.4272 13.9431 83.3902 14.165 83.3163 14.3869L83.0944 15.0527C82.9834 15.2746 82.9094 15.4595 82.7985 15.7184L82.5765 16.0513C82.5026 16.1253 82.4656 16.2362 82.3916 16.3102C82.2437 16.4951 82.0957 16.717 81.9848 16.865C81.7998 17.0499 81.6889 17.2348 81.467 17.3828V17.4198C81.282 17.5677 81.1341 17.7157 80.9492 17.8636C80.3574 18.3074 79.6916 18.6403 79.0629 19.0841C78.878 19.2321 78.656 19.343 78.5081 19.491C78.3232 19.6389 78.1382 19.7869 77.9903 19.9348L77.4725 20.4526C77.3246 20.6375 77.1766 20.8225 77.0657 21.0074C76.9177 21.1923 76.7698 21.4142 76.6588 21.5992C76.5478 21.8211 76.4739 22.006 76.3629 22.2649C76.289 22.4868 76.178 22.6718 76.141 22.9307C76.067 23.1896 75.9931 23.4115 75.9561 23.6334C75.9191 23.7444 75.9191 23.8923 75.8821 24.0033C75.8451 24.1142 75.8451 24.2252 75.8081 24.3361C75.8081 24.558 75.7711 24.8169 75.7711 25.0389C75.7711 25.2238 75.7711 25.3717 75.8081 25.5567C75.8081 25.7786 75.8451 26.0005 75.8821 26.2594C75.9191 26.4813 75.9561 26.7032 76.03 26.9251L76.252 27.5909C76.3259 27.7388 76.3999 27.8868 76.4369 27.9977L69.9644 25.4827C68.8548 25.1868 67.7822 24.8909 66.7096 24.632C66.1178 24.4841 65.5261 24.3361 64.9343 24.2252C63.2329 23.8923 61.5316 23.6334 59.7933 23.4485C59.7193 23.4485 59.7193 23.4115 59.6453 23.4115C57.944 23.2266 56.2796 23.1526 54.6152 23.1526C53.3577 23.1526 52.1372 23.2266 50.9166 23.3005C49.2153 23.4115 47.477 23.6334 45.7756 23.9293C45.3688 24.0033 44.9249 24.0772 44.5181 24.1512C43.6304 24.3361 42.8167 24.5211 41.9661 24.706C41.5592 24.8169 41.1154 24.9279 40.7085 25.0389C40.3017 25.2238 39.8949 25.4087 39.488 25.5567C39.1921 25.7046 38.8592 25.8526 38.5634 25.9635C38.4894 26.0005 38.4524 26.0005 38.4154 26.0375C38.1195 26.1854 37.8976 26.2964 37.6387 26.4443C37.5647 26.4813 37.4908 26.5183 37.4538 26.5183C37.1579 26.6662 36.825 26.8142 36.5661 26.9621C36.3812 27.0361 36.1593 27.1471 36.0113 27.258C35.9374 27.332 35.8264 27.369 35.7524 27.406C35.4935 27.5539 35.2346 27.7018 35.0127 27.8128C34.7538 27.9607 34.5319 28.1087 34.347 28.2196C34.162 28.3676 33.9401 28.4785 33.7922 28.6265C33.7552 28.6635 33.7182 28.6635 33.7182 28.7005C33.5333 28.8114 33.3484 28.9594 33.2004 29.1073L33.1264 29.1813C32.9785 29.2922 32.8306 29.4032 32.7196 29.5142C32.6456 29.5511 32.6086 29.5881 32.5347 29.6251C32.3867 29.7361 32.2388 29.884 32.1278 29.995C32.0908 30.0689 32.0538 30.0689 32.0169 30.1059C31.8319 30.2909 31.684 30.4018 31.4991 30.5867C31.4621 30.5867 31.4621 30.6237 31.4251 30.6607C31.2402 30.8087 31.0922 30.9566 30.9073 31.1415C30.8703 31.1785 30.8703 31.2155 30.8333 31.2155C30.6854 31.3634 30.5374 31.5114 30.4265 31.6593C30.3525 31.7333 30.2785 31.7703 30.2415 31.8443C30.0936 32.0292 29.9457 32.1771 29.7607 32.3621C29.7237 32.436 29.6868 32.436 29.6498 32.51C29.4279 32.7319 29.2429 32.9538 28.984 33.1758L28.9101 33.2497C28.4662 33.7305 27.9854 34.2114 27.4676 34.6182C26.9498 35.062 26.432 35.5059 25.8772 35.8757C25.3224 36.2826 24.7676 36.6154 24.1759 36.9483C23.6211 37.2442 23.0293 37.5401 22.4005 37.799C21.8088 38.0579 21.18 38.2798 20.5512 38.4647C19.3677 38.7236 18.1472 39.2045 17.1116 39.2784C16.8896 39.2784 16.6307 39.3524 16.4088 39.3524C16.1499 39.4264 15.928 39.4633 15.7061 39.5373C15.4842 39.6113 15.2623 39.7223 15.0403 39.7962C14.8184 39.8702 14.5965 39.9812 14.3746 40.0921C14.1897 40.2401 13.9678 40.351 13.7458 40.499C13.5609 40.6469 13.339 40.7948 13.1911 40.9798C13.0061 41.1277 12.7842 41.3126 12.6363 41.4976C12.4513 41.6825 12.3034 41.8674 12.1555 42.0524C12.0075 42.2743 11.8596 42.4592 11.7486 42.7181C11.6007 42.903 11.4527 43.1249 11.3418 43.3838C11.2308 43.6427 11.1198 43.8647 11.0459 44.1236C10.9719 44.3455 10.8609 44.6044 10.787 44.8633C10.713 45.0852 10.676 45.3071 10.639 45.529C10.639 45.566 10.602 45.603 10.602 45.603C10.5281 45.8619 10.5281 46.1948 10.5281 46.3797C10.4911 46.5646 10.4541 46.7496 10.4541 46.9345C10.4541 47.0455 10.4541 47.1934 10.4911 47.3044C10.5281 47.4893 10.5651 47.6742 10.602 47.8222C10.676 48.0071 10.713 48.155 10.787 48.34V48.3769C10.8609 48.5619 10.9719 48.7098 11.0829 48.8948C11.1938 49.0797 11.3048 49.2276 11.4527 49.4126C11.6007 49.5605 11.7486 49.7084 11.9335 49.8564C12.1185 50.0413 12.2664 50.1523 12.4513 50.3002C13.1171 50.892 13.302 51.0769 14.1527 51.5577L14.5965 51.7796C14.6335 51.7796 14.6705 51.8166 14.6705 51.8166C14.6705 51.8906 14.6705 51.8906 14.7075 51.9646C14.7445 52.1865 14.7814 52.4084 14.8554 52.6303C14.9294 52.8892 15.0034 53.1111 15.0773 53.2961C15.1513 53.481 15.2253 53.6289 15.2993 53.8139C15.3362 53.8878 15.3732 53.9248 15.3732 53.9618C15.4842 54.1837 15.5951 54.3687 15.7061 54.5906C15.854 54.7755 16.002 54.9974 16.1129 55.1823C16.2609 55.3673 16.4088 55.5522 16.5938 55.7001C16.7787 55.8851 16.9266 55.996 17.1116 56.181C17.1116 56.181 17.1485 56.2179 17.1855 56.2179C17.3705 56.3659 17.5184 56.5138 17.7033 56.6248C17.8883 56.7727 18.1102 56.8837 18.3321 56.9947C18.517 57.1056 18.7389 57.2166 18.9978 57.2905C19.1828 57.3645 19.3677 57.4385 19.5526 57.4755C19.5896 57.5125 19.6266 57.5125 19.6636 57.5494C19.7745 57.5864 19.9225 57.6234 20.0334 57.6234C19.9595 59.1398 19.9225 60.5823 20.1444 61.1001C20.4033 61.6549 21.6238 59.9535 22.8814 57.9563C22.6964 59.9165 22.5855 62.1727 22.8814 62.8754C23.1772 63.5781 24.8786 61.396 26.358 58.9549C46.3304 54.3317 64.5644 68.1274 66.4877 87.6559C66.1178 84.6231 62.3823 82.9217 60.6439 83.3286C59.7933 85.3998 58.3508 88.0998 56.0577 89.7641C56.2426 87.9148 56.1686 85.9916 55.7618 84.1423C55.133 86.7313 53.9125 89.1724 52.2851 91.2436C49.6221 91.4285 46.9222 90.134 45.5167 88.2107C45.4057 88.1367 45.3688 87.9518 45.2948 87.8409C45.2208 87.6559 45.1099 87.434 45.0729 87.2491C44.9989 87.0642 44.9249 86.8422 44.8879 86.6573C44.851 86.4724 44.851 86.2505 44.851 86.0286V85.6217C44.8879 85.4368 44.9249 85.2149 44.9989 85.0299C45.0729 84.845 45.1099 84.6231 45.1838 84.4382C45.2948 84.2532 45.3688 84.0313 45.5167 83.8464C45.9975 82.4779 45.9975 81.4053 45.1099 80.7396C44.9249 80.6286 44.777 80.5546 44.5921 80.4437C44.4811 80.4067 44.3332 80.3697 44.2222 80.3327C44.1482 80.2958 44.0743 80.2588 44.0003 80.2588C43.8154 80.1848 43.5934 80.1478 43.4085 80.1108C43.2236 80.0368 43.0017 80.0368 42.8167 80.0368C42.6318 79.9999 42.4099 79.9629 42.188 79.9629C42.04 79.9629 41.8921 79.9999 41.7811 79.9999C41.5592 79.9999 41.3743 80.0368 41.1524 80.0738C40.9674 80.1108 40.7455 80.1478 40.5606 80.1848C40.3757 80.2588 40.1538 80.2957 39.9688 80.3697C39.7839 80.4437 39.599 80.5546 39.414 80.6286C39.2291 80.7026 39.0812 80.8135 38.8962 80.9245C32.3128 85.2149 36.2333 95.238 40.7455 98.1229C39.0442 98.4188 37.3428 98.7887 36.862 99.1585L36.788 99.2325C38.0086 99.9722 39.2661 100.601 40.5976 101.119C42.4099 101.711 44.3332 102.228 45.1468 102.487V102.524C47.477 103.005 49.844 103.19 52.2481 103.042C64.7124 102.154 74.9575 92.686 76.8068 80.1478C76.8807 80.4067 76.9177 80.6286 76.9917 80.8875C77.0657 81.4053 77.1766 81.9231 77.2506 82.4779V82.5149C77.3246 82.7738 77.3246 83.0327 77.3615 83.2546V83.3656C77.3985 83.6245 77.4355 83.8834 77.4355 84.1053C77.4725 84.4012 77.5095 84.734 77.5095 85.0299V85.4738C77.5095 85.6217 77.5465 85.7696 77.5465 85.9176C77.5465 86.1025 77.5095 86.2505 77.5095 86.4354V86.8422C77.5095 87.0272 77.4725 87.2121 77.4725 87.397C77.4725 87.508 77.4725 87.6189 77.4355 87.7669C77.4355 87.9518 77.3985 88.1737 77.3985 88.3957C77.3615 88.4696 77.3615 88.5806 77.3615 88.6546C77.3246 88.8765 77.2876 89.0614 77.2876 89.3203C77.2876 89.3943 77.2876 89.5052 77.2506 89.5792C77.2136 89.8751 77.1766 90.097 77.1396 90.3929V90.4669C77.0657 90.7258 77.0287 90.9847 76.9547 91.2436V91.3175C76.8807 91.5764 76.8437 91.8353 76.7698 92.0942C76.7698 92.1312 76.7328 92.1682 76.7328 92.2052C76.6588 92.4641 76.6218 92.723 76.5479 92.9819V93.0559C76.4739 93.3518 76.3629 93.5737 76.3259 93.8326C76.2889 93.8696 76.2889 93.9065 76.2889 93.9065C76.215 94.2024 76.104 94.4613 76.03 94.7572C75.9191 95.0531 75.8451 95.275 75.7342 95.5709C75.6232 95.8668 75.5492 96.1257 75.4383 96.3846C75.3273 96.6805 75.2164 96.9024 75.1054 97.1983H75.0684C74.9575 97.4572 74.8465 97.7161 74.6986 97.975C74.6616 98.049 74.6246 98.1229 74.6246 98.1599C74.5876 98.1969 74.5876 98.2339 74.5506 98.2339C72.7013 101.932 70.0014 105.15 66.6356 107.702C66.4137 107.85 66.1918 107.998 65.9699 108.183C65.8959 108.257 65.8219 108.257 65.785 108.331C65.6 108.479 65.3781 108.627 65.1562 108.738L65.2302 108.923H65.2672C65.674 108.849 66.0439 108.812 66.4507 108.738H66.4877C67.2274 108.627 67.9671 108.479 68.6699 108.331C68.8548 108.294 69.0767 108.257 69.2986 108.183C69.4466 108.146 69.5575 108.109 69.7055 108.109C69.8904 108.072 70.1123 108.035 70.2972 107.998C70.4822 107.924 70.6301 107.924 70.815 107.85C73.626 107.184 76.3629 106.26 78.9889 105.15C74.5136 111.253 68.5219 116.209 61.4946 119.427C64.7494 119.205 67.9671 118.65 71.1109 117.762C82.4656 114.397 92.0079 106.778 97.7408 96.4956C96.5942 103.005 94.0052 109.219 90.1586 114.619C92.8956 112.806 95.4106 110.735 97.6668 108.368C103.991 101.785 108.134 93.3887 109.539 84.4012C110.501 88.8395 110.797 93.4627 110.353 97.975C130.695 69.6068 112.054 40.1661 104.25 32.436C104.213 32.3621 104.176 32.3621 104.176 32.2881C104.139 32.3251 104.139 32.3251 104.139 32.3621C104.139 32.3251 104.139 32.3251 104.102 32.2881C104.102 32.621 104.065 32.9538 104.028 33.2867C103.954 33.9525 103.843 34.5442 103.732 35.173C103.585 35.8018 103.437 36.4305 103.252 37.0223C103.067 37.6141 102.845 38.2428 102.586 38.8346C102.327 39.3894 102.068 39.9812 101.735 40.5359C101.439 41.0537 101.069 41.6455 100.737 42.1263C100.367 42.6441 99.9599 43.1619 99.59 43.6428C99.1832 44.1606 98.7024 44.6044 98.2586 45.0482C97.9627 45.3071 97.7408 45.529 97.4449 45.751C97.223 45.9359 97.038 46.1208 96.7791 46.3057C96.2613 46.7126 95.7805 47.0824 95.1887 47.4153C94.6709 47.7482 94.0792 48.0811 93.5244 48.3769C92.9326 48.6728 92.3408 48.8947 91.749 49.1536C91.1573 49.3756 90.5285 49.5605 89.8997 49.7454C89.271 49.9304 88.6422 50.0413 88.0135 50.1523C87.3477 50.2632 86.719 50.3372 86.0902 50.3742C85.6464 50.4112 85.2025 50.4482 84.7217 50.4482C84.056 50.4482 83.4272 50.3742 82.7985 50.3372C82.1327 50.2632 81.504 50.1892 80.8752 50.0413C80.2095 49.9303 79.6177 49.7454 78.9889 49.5605H78.9519C79.5807 49.4865 80.2095 49.4495 80.8012 49.3386C81.467 49.2276 82.0587 49.0797 82.6875 48.9317C83.3163 48.7468 83.945 48.5619 84.5368 48.34C85.1656 48.118 85.7573 47.8222 86.3121 47.5633C86.9039 47.2674 87.4217 46.9715 88.0135 46.6386C88.5313 46.2688 89.0861 45.8989 89.6039 45.529C90.1217 45.1222 90.6025 44.7153 91.0463 44.2715C91.5271 43.8647 91.934 43.3839 92.3778 42.903C92.7846 42.3852 93.1915 41.9044 93.5614 41.3866C93.6353 41.3126 93.6723 41.2017 93.7463 41.0907C94.0422 40.6469 94.3011 40.2031 94.56 39.7222C94.8559 39.1675 95.1517 38.6127 95.4106 38.0209C95.6695 37.4291 95.8915 36.8374 96.0764 36.2086C96.2613 35.6168 96.4093 34.9881 96.5572 34.3593C96.6682 33.6936 96.7791 33.1018 96.8531 32.473C96.9271 31.8073 96.964 31.1785 96.964 30.5498C96.964 30.1059 96.9271 29.6621 96.8901 29.1813C96.8161 28.5155 96.7421 27.9238 96.6682 27.295C96.5572 26.6293 96.4093 26.0375 96.2613 25.4087C96.0764 24.8169 95.8545 24.1882 95.6326 23.5964C95.4106 23.0046 95.1148 22.4129 94.8559 21.8581C94.56 21.3033 94.2271 20.7485 93.8942 20.1937L92.7846 18.6403C92.3778 18.1595 91.934 17.6787 91.4901 17.1979C91.2682 16.9759 91.0093 16.717 90.7504 16.4951C89.4929 15.4965 88.1614 14.5719 86.8299 13.7212C86.645 13.6102 86.4601 13.5363 86.2751 13.4253C85.3875 12.7596 84.5368 12.4637 83.6491 12.1678V12.1678Z" fill="#EA2845"/>
</svg>

<svg width="130" height="130" fill="none" xmlns="http://www.w3.org/2000/svg"><path d="M74.699 10.577c-.777 0-1.517.185-2.183.407 1.443.962 2.22 2.22 2.626 3.662.037.185.074.333.111.518.037.185.074.332.074.517.111 2.479-.665 2.774-1.183 4.254-.814 1.886-.592 3.92.407 5.548.074.185.184.407.332.628-1.072-7.138 4.883-8.21 5.992-10.43.074-1.96-1.516-3.254-2.774-4.142-1.294-.74-2.404-.962-3.402-.962zm8.95 1.59c-.11.667-.037.482-.074.815-.037.221-.037.517-.074.74-.074.221-.11.443-.185.665l-.222.666c-.11.222-.185.406-.295.665l-.223.333c-.073.074-.11.185-.184.26-.148.184-.296.406-.407.554-.185.185-.296.37-.518.518v.037c-.185.148-.333.296-.518.444-.592.443-1.257.776-1.886 1.22-.185.148-.407.259-.555.407-.185.148-.37.296-.518.444l-.517.518c-.148.184-.296.37-.407.554a5.632 5.632 0 00-.407.592c-.111.222-.185.407-.296.666-.074.222-.185.407-.222.666-.074.259-.148.48-.185.702-.037.111-.037.26-.074.37-.037.111-.037.222-.074.333 0 .222-.037.48-.037.703 0 .185 0 .333.037.518 0 .222.037.444.074.702.037.222.074.444.148.666l.222.666c.074.148.148.296.185.407l-6.473-2.515c-1.11-.296-2.182-.592-3.254-.851-.592-.148-1.184-.296-1.776-.407a59.37 59.37 0 00-5.14-.777c-.075 0-.075-.037-.149-.037a46.302 46.302 0 00-5.03-.258c-1.257 0-2.478.074-3.698.148-1.702.11-3.44.332-5.141.628-.407.074-.851.148-1.258.222-.888.185-1.701.37-2.552.555-.407.11-.85.222-1.258.333-.406.185-.813.37-1.22.518a10.06 10.06 0 01-.925.407c-.074.037-.11.037-.148.074-.295.147-.517.258-.776.406-.074.037-.148.074-.185.074-.296.148-.629.296-.888.444a2.648 2.648 0 00-.555.296c-.074.074-.185.111-.259.148-.259.148-.517.296-.74.407-.258.148-.48.296-.665.407-.185.148-.407.259-.555.407-.037.037-.074.037-.074.074-.185.11-.37.258-.518.406l-.074.074c-.148.111-.295.222-.406.333-.074.037-.111.074-.185.111a4.049 4.049 0 00-.407.37c-.037.074-.074.074-.111.11-.185.186-.333.297-.518.482-.037 0-.037.037-.074.074a6.156 6.156 0 00-.518.48c-.037.038-.037.075-.074.075a4.43 4.43 0 00-.406.443c-.075.074-.148.111-.186.185a6.138 6.138 0 01-.48.518c-.037.074-.074.074-.111.148-.222.222-.407.444-.666.666l-.074.074c-.444.48-.925.961-1.442 1.368-.518.444-1.036.888-1.59 1.258-.556.407-1.11.74-1.702 1.072-.555.296-1.147.592-1.775.851-.592.259-1.221.48-1.85.666-1.183.259-2.404.74-3.44.813-.221 0-.48.074-.702.074-.26.074-.481.111-.703.185-.222.074-.444.185-.666.26-.222.073-.443.184-.665.295-.185.148-.407.259-.63.407-.184.148-.406.296-.554.48-.185.149-.407.334-.555.519-.185.184-.333.37-.48.554-.149.222-.296.407-.407.666a2.9 2.9 0 00-.407.666c-.111.259-.222.48-.296.74-.074.221-.185.48-.259.74-.074.221-.111.443-.148.665 0 .037-.037.074-.037.074-.074.259-.074.592-.074.777-.037.185-.074.37-.074.554 0 .111 0 .26.037.37.037.185.074.37.111.518.074.185.111.333.185.518v.037c.074.185.185.333.296.518.11.185.222.333.37.518.148.148.296.295.48.443.185.185.333.296.518.444.666.592.851.777 1.702 1.258l.444.222c.037 0 .074.037.074.037 0 .074 0 .074.037.148.037.221.073.443.147.665.074.26.148.481.222.666.074.185.148.333.222.518.037.074.074.11.074.148.111.222.222.407.333.629.148.184.296.406.407.591.148.185.296.37.48.518.186.185.334.296.519.481 0 0 .037.037.074.037.184.148.332.296.517.407.185.148.407.259.63.37.184.11.406.222.665.296.185.074.37.148.555.184.037.038.074.038.11.074.111.037.26.074.37.074-.074 1.517-.11 2.96.111 3.477.26.555 1.48-1.147 2.737-3.144-.185 1.96-.296 4.217 0 4.92.296.702 1.998-1.48 3.477-3.921 19.972-4.623 38.206 9.172 40.13 28.7-.37-3.032-4.106-4.733-5.844-4.326-.85 2.07-2.293 4.77-4.586 6.435.185-1.85.11-3.772-.296-5.622-.629 2.59-1.85 5.03-3.477 7.102-2.663.184-5.363-1.11-6.768-3.033-.111-.074-.148-.26-.222-.37-.074-.185-.185-.407-.222-.592a3.635 3.635 0 01-.185-.592c-.037-.185-.037-.406-.037-.628v-.407c.037-.185.074-.407.148-.592s.11-.407.185-.592c.11-.185.185-.407.333-.592.48-1.368.48-2.44-.407-3.106-.185-.111-.333-.185-.518-.296-.11-.037-.259-.074-.37-.111-.074-.037-.148-.074-.222-.074-.185-.074-.407-.111-.592-.148-.184-.074-.406-.074-.591-.074a3.263 3.263 0 00-.629-.074c-.148 0-.296.037-.407.037-.222 0-.407.037-.629.074-.185.037-.407.074-.591.11-.185.075-.407.112-.592.186s-.37.185-.555.259c-.185.074-.333.184-.518.295-6.583 4.29-2.663 14.314 1.85 17.199-1.702.296-3.403.666-3.884 1.035l-.074.075c1.22.74 2.478 1.368 3.81 1.886 1.812.592 3.735 1.109 4.549 1.368v.037c2.33.481 4.697.666 7.101.518 12.464-.888 22.71-10.356 24.559-22.894.074.259.11.48.185.74.074.517.185 1.035.259 1.59v.037c.074.259.074.518.11.74v.11c.037.26.075.518.075.74.036.296.073.629.073.925v.444c0 .148.037.296.037.444 0 .184-.037.332-.037.517v.407c0 .185-.037.37-.037.555 0 .111 0 .222-.036.37 0 .185-.038.407-.038.629-.036.074-.036.185-.036.259-.037.221-.074.406-.074.665 0 .074 0 .185-.037.26-.037.295-.074.517-.111.813v.074c-.074.259-.111.518-.185.777v.073c-.074.26-.111.518-.185.777 0 .037-.037.074-.037.111-.074.26-.111.518-.185.777v.074c-.074.296-.185.518-.222.777-.037.037-.037.073-.037.073-.074.296-.185.555-.259.851-.11.296-.185.518-.296.814-.11.296-.185.555-.296.814-.11.295-.222.517-.333.813h-.037c-.11.26-.221.518-.37.777-.036.074-.073.148-.073.185-.037.037-.037.074-.074.074-1.85 3.698-4.55 6.916-7.915 9.468a7.5 7.5 0 00-.666.481c-.074.074-.148.074-.185.148a3.668 3.668 0 01-.629.407l.074.185h.037c.407-.074.777-.111 1.184-.185h.037a38.08 38.08 0 002.182-.407c.185-.037.407-.074.629-.148.148-.037.258-.074.406-.074.185-.037.407-.074.592-.111.185-.074.333-.074.518-.148a51.59 51.59 0 008.174-2.7 44.881 44.881 0 01-17.494 14.277 47.15 47.15 0 009.616-1.665c11.355-3.365 20.897-10.984 26.63-21.266a44.62 44.62 0 01-7.582 18.123c2.737-1.813 5.252-3.884 7.508-6.251a44.577 44.577 0 0011.872-23.967c.962 4.439 1.258 9.062.814 13.574 20.342-28.368 1.701-57.809-6.103-65.539-.037-.074-.074-.074-.074-.148-.037.037-.037.037-.037.074 0-.037 0-.037-.037-.074 0 .333-.037.666-.074.999-.074.666-.185 1.257-.296 1.886a26.413 26.413 0 01-.48 1.85c-.185.591-.407 1.22-.666 1.812-.259.554-.518 1.146-.851 1.7-.296.519-.666 1.11-.998 1.591-.37.518-.777 1.036-1.147 1.517-.407.518-.888.961-1.331 1.405-.296.26-.518.481-.814.703-.222.185-.407.37-.666.555-.518.407-.998.776-1.59 1.11a24.33 24.33 0 01-1.665.96c-.591.297-1.183.519-1.775.778-.592.222-1.22.406-1.85.591-.628.185-1.257.296-1.886.407a18.07 18.07 0 01-1.923.222c-.444.037-.888.074-1.368.074-.666 0-1.295-.074-1.923-.11-.666-.075-1.295-.149-1.924-.297-.665-.11-1.257-.296-1.886-.48h-.037c.629-.075 1.258-.111 1.85-.222.665-.111 1.257-.26 1.885-.407.63-.185 1.258-.37 1.85-.592.629-.222 1.22-.518 1.775-.777.592-.296 1.11-.592 1.701-.924.518-.37 1.073-.74 1.59-1.11.519-.407 1-.814 1.443-1.258.481-.406.888-.887 1.332-1.368.407-.518.814-.999 1.183-1.516.074-.074.111-.185.185-.296.296-.444.555-.888.814-1.369.296-.555.592-1.11.85-1.701.26-.592.481-1.184.666-1.812.185-.592.333-1.22.481-1.85.111-.665.222-1.257.296-1.886.074-.666.111-1.294.111-1.923 0-.444-.037-.888-.074-1.369-.074-.666-.148-1.257-.222-1.886-.11-.666-.259-1.258-.407-1.886a35.094 35.094 0 00-.628-1.813c-.222-.591-.518-1.183-.777-1.738-.296-.555-.629-1.11-.962-1.664l-1.11-1.554c-.406-.48-.85-.961-1.294-1.442-.222-.222-.48-.481-.74-.703a47.06 47.06 0 00-3.92-2.774c-.185-.11-.37-.185-.555-.296-.888-.665-1.738-.961-2.626-1.257z" fill="#EA2845"/></svg>
